X:1
T:F# minor James P. Carrell, 1821
T:John Cennick, 1741           87. 87. 47. 
T:Watchman
T:Transcribed from Songs of Zion, 1821
%%score [ 1 2 3 4 ]
L:1/8
Q:1/4=90
M:4/4
K:A
V:1 treble nm="Tr." snm="Tr."
V:2 treble nm="C." snm="C."
V:3 treble-8 nm="T." snm="T."
V:4 bass nm="B." snm="B."
V:1
"^1. Lo!  he   cometh, countless trumpets     Blow  be–fore   his     bloo – dy    sign!                                          Midst ten   thousand  saints  and\n2. Now  his  me–rits    by   the  har–pers,  Through  the  eternal  deeps  resounds!                                          Now  re–splen–dent  shine  his \n3. Every  is–land,  sea,  and  moun–tain,   Heaven  and  earth  shall  flee  a – way!                                        All   who   hate   him  must,  a– \n4. All  who  love  him  view  his   glo–ry,   Shi–ning   in   his     brui –  sed     face:                                         His   dear    per – son   on    the" c3 c A2 F2 | %1
 c2 f2 e2 e2 | f3 g f2 ed | c2 c2 c4- | c4 z4 | z4 B2 B2 | c3 c A2 Ac | %7
"^1. angels,    See   the      cru – ci – fi  – ed     shine.    Hal – le  –  lu  – jah!  Hal – le –  lu  –  jah!  Wel–come,   wel – come   blee – ding  Lamb!\n2. nail–prints,  Every eye shall  see  his   wounds!   They who pierced him, They who pierced him,   Shall   at  his  ap – pea – ring  wail.\n3. – sha–med,  Hear the trump proclaim his day:  Come to judgment!  Come to judgment!   Stand  be  –  fore    the      Son     of      man!\n4. rainbow,  Now his people's heads shall   raise:     Hap–py mourners!   Hap–py mourners!    Now   on   clouds   he    comes!   he    comes!" e2 c2 B2 B2 | %8
 A2 G2 F2 F2 | c4 c3 c | c2 e2 f2 f2 | e2 e2 e2 f2 | cd e2 c2 c2 | c8 |] %14
V:2
 F3 E F2 F2 | A2 A2 GA B2 | A3 B c2 c2 | c2 AG F4- | F4 z4 | z4 E2 E2 | F3 F A2 AF | E2 E2 E2 D2 | %8
 C2 C2 F2 F2 | F4 F3 F | A2 A2 F2 A2 | G2 G2 c2 cB | A2 AF E2 E2 | F8 |] %14
V:3
"^1. Lo!  he   cometh, countless trumpets     Blow  be–fore   his     bloo – dy    sign!          Midst ten thousand  saints and  angels,  See   the\n2. Now  his  me–rits    by   the  har–pers,  Through  the  eternal  deeps  resounds!        Now resplendent shine  his  nail-prints,   Eve –ry\n3. Every  is–land,  sea,  and  moun–tain,   Heaven  and  earth  shall  flee  a – way!          All who hate him must, a–sha–med,   Hear  the\n4. All  who  love  him  view  his   glo–ry,   Shi–ning   in   his     brui –  sed     face:           His  dear  per–son  on  the  rainbow,    Now  his" A3 G F2 AB | %1
 c2 A2 GF E2 | F3 E F2 A2 | GF E2 F4- | F4 F2 F2 | A3 A B2 d2 | c2 c2 c2 dc | %7
"^1. cru –ci –fi – ed      shine.                                           Hal – le  –  lu  – jah!  Hal – le –  lu  –  jah!  Wel–come,   wel – come   blee – ding  Lamb!\n2. eye shall  see  his wounds!                                         They who pierced him, They who pierced him,   Shall   at   his   ap – pea – ring  wail.\n3. trump proclaim his day:                                            Come to judgment!  Come to judgment!   Stand  be  –  fore    the      Son     of      man!\n4. people's heads shall raise:                                            Hap–py mourners!  Hap–py mourners!    Now   on   clouds   he    comes!   he    comes!" B2 A2 B2 B2 | %8
 c8 | z4 f3 f | f2 c2 A2 F2 | B2 B2 e2 c2 | cB A2 E2 E2 | F8 |] %14
V:4
 F,3 G, F,2 F,2 | C,2 C,2 E,2 E,2 | C3 B, A,2 F,2 | C,D, E,2 F,4- | F,4 F,2 F,2 | C,3 C, E,2 F,G, | %6
 A,2 A,2 F,2 A,2 | E,2 E,2 E,2 F,2 | C,8 | z4 F,3 F, | F,2 C2 A,2 F,2 | E,2 E,2 C,2 C,2 | %12
 F,2 A,B, C2 C,2 | F,8 |] %14

